X:192
T:Eel in the Sink, The
R:reel
D:John Wynne: With Every Breath
Z:transcribed by Dave Marshall
M:C|
K:Amix
|: eAAG EAce | edBG D2Bd | eAAG EAce | aged cAA2 :|
|: cdef g2ed | egaf gfed | cdef g2eg | aged cAA2 :|
